X: 404
%
U:~=!turn!
T: Miss Henny MacKenzie
C:
O:Scotland
B:Keith Norman MacDonald : "The Skye collection of the best reels & strathspeys extant" : 1887
Z:Ralph Palmer
R:Reel
M:C
L:1/8
K:A minor
e | A/A/A ^cA dB{/d}cA | Bggd BGGB | A/A/A ^cA dB{/d}cA | Baae ^cAA :| ^g | ae^ca eaca | Bggd BGGg |
ae^ce eaca | Baae ^cAA^g | ae^ca eaca | Bggd BGGg | a^fge fde^c | ^faae {/^d}^cAA |]


